X:204
%%musicspace -10
%%titlespace -15
T:Rattlin' Bog
M:4/4
L:1/4
K:A
A/2B/2 | "A"c2 c3/2B/2 | "D"A F F3/2F/2 | "A"E A A/2G/2A/2B/2 | "E7"c B B2 | 
"A"c2 c3/2B/2 | "D"A F F3/2F/2 | "E7"E e e3/2d/2 | "A"c A A :|]
[|: A/2B/2 | "A"c A "E7"B A/2B/2 | "A"c A "E7"B A/2B/2 | "A"c e e3/2d/2 | "A"c B "E7"B2 | 
"A"c A "E7"B A/2B/2 | "A"c A "E7"B A/2B/2 | "A"c e "E7"e3/2d/2 | "A"c A A :|]

